T: John Kelly's
M: 4/4
L: 1/8
K: Gmaj
DE|G2 G2 GABG|AGEG GABd|d2gd edBd|d2ed dBAE|!G2 G2 GABG|AGEG GABd|d2gd edBG|1 A2 G2 GE:|2 A2 G2 GA||!Bd|e3e edBd|d3d dBAB|c3A B2dB|BAAG AGEG|!G2 G2 GABG|AGEG GABd|d2gd edBG|1 A2 G2 GA:|2 A2 G2 G2||
